src/components/00-materials/images-raw/Light Bulb.svg

<svg width="96" height="96" viewBox="0 0 96 96" fill="none" xmlns="http://www.w3.org/2000/svg">
<mask id="path-2-inside-1" fill="white">
<path d="M24.84 22.43C25.0116 22.5542 25.2182 22.6207 25.43 22.62C25.639 22.6179 25.8422 22.5504 26.0108 22.4269C26.1795 22.3034 26.3052 22.1302 26.3703 21.9315C26.4354 21.7329 26.4367 21.5188 26.3738 21.3194C26.311 21.1201 26.1873 20.9454 26.02 20.82L19.52 16.07C19.3052 15.9135 19.037 15.8488 18.7745 15.89C18.5119 15.9313 18.2765 16.0752 18.12 16.29C17.9635 16.5048 17.8988 16.773 17.9401 17.0356C17.9813 17.2981 18.1252 17.5335 18.34 17.69L24.84 22.43ZM22.71 34.25C22.71 33.9848 22.6047 33.7304 22.4171 33.5429C22.2296 33.3553 21.9752 33.25 21.71 33.25H14.33C14.0648 33.25 13.8104 33.3553 13.6229 33.5429C13.4354 33.7304 13.33 33.9848 13.33 34.25C13.33 34.5152 13.4354 34.7696 13.6229 34.9571C13.8104 35.1446 14.0648 35.25 14.33 35.25H21.71C21.9752 35.25 22.2296 35.1446 22.4171 34.9571C22.6047 34.7696 22.71 34.5152 22.71 34.25ZM25.53 46.15L18.35 51.2C18.1834 51.3249 18.0599 51.4986 17.9968 51.6971C17.9337 51.8955 17.9341 52.1087 17.9979 52.3069C18.0618 52.5051 18.1859 52.6784 18.353 52.8026C18.5201 52.9269 18.7218 52.9959 18.93 53C19.1348 53.0051 19.3353 52.9418 19.5 52.82L26.68 47.82C26.7882 47.7442 26.8802 47.6477 26.9509 47.5362C27.0216 47.4246 27.0695 47.3002 27.0918 47.17C27.1141 47.0398 27.1104 46.9065 27.0809 46.7778C27.0514 46.6491 26.9968 46.5275 26.92 46.42C26.8466 46.3109 26.7524 46.2173 26.6427 46.1446C26.5331 46.072 26.4102 46.0217 26.281 45.9966C26.1519 45.9715 26.0191 45.9722 25.8902 45.9985C25.7614 46.0248 25.639 46.0763 25.53 46.15ZM71 22.62C71.2118 22.6207 71.4184 22.5542 71.59 22.43L78.09 17.69C78.1964 17.6125 78.2865 17.5148 78.3551 17.4025C78.4237 17.2903 78.4695 17.1656 78.49 17.0356C78.5104 16.9056 78.505 16.7728 78.4741 16.6449C78.4433 16.5169 78.3875 16.3964 78.31 16.29C78.2325 16.1836 78.1349 16.0935 78.0226 16.0249C77.9103 15.9563 77.7856 15.9105 77.6556 15.89C77.5256 15.8696 77.3928 15.875 77.2649 15.9059C77.137 15.9367 77.0164 15.9925 76.91 16.07L70.41 20.82C70.2428 20.9454 70.119 21.1201 70.0562 21.3194C69.9934 21.5188 69.9946 21.7329 70.0597 21.9315C70.1248 22.1302 70.2505 22.3034 70.4192 22.4269C70.5879 22.5504 70.791 22.6179 71 22.62ZM82.1 33.25H74.72C74.4548 33.25 74.2004 33.3553 74.0129 33.5429C73.8254 33.7304 73.72 33.9848 73.72 34.25C73.72 34.5152 73.8254 34.7696 74.0129 34.9571C74.2004 35.1446 74.4548 35.25 74.72 35.25H82.1C82.3652 35.25 82.6196 35.1446 82.8071 34.9571C82.9947 34.7696 83.1 34.5152 83.1 34.25C83.1 33.9848 82.9947 33.7304 82.8071 33.5429C82.6196 33.3553 82.3652 33.25 82.1 33.25ZM70.9 46.15C70.6836 45.9982 70.416 45.9382 70.1555 45.9832C69.895 46.0281 69.663 46.1744 69.51 46.39C69.4333 46.4975 69.3786 46.6191 69.3491 46.7478C69.3196 46.8765 69.3159 47.0098 69.3383 47.14C69.3606 47.2702 69.4084 47.3946 69.4791 47.5062C69.5498 47.6177 69.6419 47.7142 69.75 47.79L76.92 52.79C77.09 52.9087 77.2927 52.9716 77.5 52.97C77.7099 52.9666 77.9135 52.8972 78.0817 52.7716C78.25 52.6461 78.3745 52.4708 78.4376 52.2705C78.5007 52.0702 78.4991 51.8552 78.4331 51.6559C78.3671 51.4566 78.2401 51.2831 78.07 51.16L70.9 46.15ZM56.23 67.91H40.31C40.0448 67.91 39.7904 68.0153 39.6029 68.2029C39.4154 68.3904 39.31 68.6448 39.31 68.91C39.31 69.1752 39.4154 69.4296 39.6029 69.6171C39.7904 69.8046 40.0448 69.91 40.31 69.91H56.23C56.4952 69.91 56.7496 69.8046 56.9371 69.6171C57.1247 69.4296 57.23 69.1752 57.23 68.91C57.23 68.6448 57.1247 68.3904 56.9371 68.2029C56.7496 68.0153 56.4952 67.91 56.23 67.91ZM56.23 71.91H40.31C40.0448 71.91 39.7904 72.0153 39.6029 72.2029C39.4154 72.3904 39.31 72.6448 39.31 72.91C39.31 73.1752 39.4154 73.4296 39.6029 73.6171C39.7904 73.8046 40.0448 73.91 40.31 73.91H56.23C56.4952 73.91 56.7496 73.8046 56.9371 73.6171C57.1247 73.4296 57.23 73.1752 57.23 72.91C57.23 72.6448 57.1247 72.3904 56.9371 72.2029C56.7496 72.0153 56.4952 71.91 56.23 71.91ZM56.23 75.91H40.31C40.0448 75.91 39.7904 76.0153 39.6029 76.2029C39.4154 76.3904 39.31 76.6448 39.31 76.91C39.31 77.1752 39.4154 77.4296 39.6029 77.6171C39.7904 77.8046 40.0448 77.91 40.31 77.91H56.23C56.4952 77.91 56.7496 77.8046 56.9371 77.6171C57.1247 77.4296 57.23 77.1752 57.23 76.91C57.23 76.6448 57.1247 76.3904 56.9371 76.2029C56.7496 76.0153 56.4952 75.91 56.23 75.91ZM53.23 79.91H43.31C43.0448 79.91 42.7904 80.0153 42.6029 80.2029C42.4154 80.3904 42.31 80.6448 42.31 80.91C42.31 81.1752 42.4154 81.4296 42.6029 81.6171C42.7904 81.8046 43.0448 81.91 43.31 81.91H53.23C53.4952 81.91 53.7496 81.8046 53.9371 81.6171C54.1247 81.4296 54.23 81.1752 54.23 80.91C54.23 80.6448 54.1247 80.3904 53.9371 80.2029C53.7496 80.0153 53.4952 79.91 53.23 79.91ZM69.71 34.7C69.5946 31.0326 68.5519 27.4542 66.6794 24.2988C64.8069 21.1434 62.1655 18.5138 59.0017 16.6554C55.838 14.7969 52.255 13.7703 48.5871 13.6712C44.9193 13.5722 41.2861 14.404 38.0266 16.0889C34.7672 17.7739 31.9877 20.2571 29.9476 23.3068C27.9075 26.3566 26.6733 29.8735 26.36 33.5293C26.0468 37.1851 26.6649 40.8607 28.1565 44.213C29.6481 47.5653 31.9647 50.4852 34.89 52.7C36.41 53.85 37.31 57.45 37.29 62.32C37.282 62.719 37.3537 63.1155 37.5009 63.4865C37.6481 63.8574 37.8678 64.1952 38.1472 64.4802C38.4266 64.7652 38.76 64.9915 39.1279 65.146C39.4959 65.3005 39.891 65.3801 40.29 65.38H55.45C55.8525 65.3802 56.251 65.2994 56.6216 65.1425C56.9923 64.9855 57.3276 64.7555 57.6075 64.4663C57.8874 64.177 58.1063 63.8344 58.251 63.4588C58.3958 63.0832 58.4634 62.6823 58.45 62.28C58.36 57.35 59.28 53.81 60.91 52.82C66.58 49.44 69.94 42.48 69.71 34.7ZM59.91 51.16C56.91 52.96 56.41 58.25 56.48 62.37C56.482 62.5086 56.4565 62.6463 56.405 62.775C56.3535 62.9037 56.2771 63.021 56.18 63.12C56.0859 63.2187 55.9726 63.2971 55.8471 63.3505C55.7215 63.4038 55.5864 63.4308 55.45 63.43H40.32C40.1836 63.4308 40.0485 63.4038 39.923 63.3505C39.7974 63.2971 39.6841 63.2187 39.59 63.12C39.4919 63.0239 39.4146 62.9086 39.363 62.7812C39.3113 62.6539 39.2865 62.5173 39.29 62.38C39.29 58.38 38.76 53.18 36.09 51.15C33.6553 49.3177 31.6816 46.9426 30.3258 44.2137C28.97 41.4847 28.2695 38.4771 28.28 35.43C28.3088 30.2912 30.3303 25.364 33.9189 21.6858C37.5076 18.0076 42.3835 15.8653 47.52 15.71H48C53.106 15.7092 58.0132 17.6888 61.6893 21.2325C65.3653 24.7761 67.5236 29.6074 67.71 34.71C67.92 41.83 64.93 48.11 59.91 51.16Z"/>
</mask>
<path d="M24.84 22.43C25.0116 22.5542 25.2182 22.6207 25.43 22.62C25.639 22.6179 25.8422 22.5504 26.0108 22.4269C26.1795 22.3034 26.3052 22.1302 26.3703 21.9315C26.4354 21.7329 26.4367 21.5188 26.3738 21.3194C26.311 21.1201 26.1873 20.9454 26.02 20.82L19.52 16.07C19.3052 15.9135 19.037 15.8488 18.7745 15.89C18.5119 15.9313 18.2765 16.0752 18.12 16.29C17.9635 16.5048 17.8988 16.773 17.9401 17.0356C17.9813 17.2981 18.1252 17.5335 18.34 17.69L24.84 22.43ZM22.71 34.25C22.71 33.9848 22.6047 33.7304 22.4171 33.5429C22.2296 33.3553 21.9752 33.25 21.71 33.25H14.33C14.0648 33.25 13.8104 33.3553 13.6229 33.5429C13.4354 33.7304 13.33 33.9848 13.33 34.25C13.33 34.5152 13.4354 34.7696 13.6229 34.9571C13.8104 35.1446 14.0648 35.25 14.33 35.25H21.71C21.9752 35.25 22.2296 35.1446 22.4171 34.9571C22.6047 34.7696 22.71 34.5152 22.71 34.25ZM25.53 46.15L18.35 51.2C18.1834 51.3249 18.0599 51.4986 17.9968 51.6971C17.9337 51.8955 17.9341 52.1087 17.9979 52.3069C18.0618 52.5051 18.1859 52.6784 18.353 52.8026C18.5201 52.9269 18.7218 52.9959 18.93 53C19.1348 53.0051 19.3353 52.9418 19.5 52.82L26.68 47.82C26.7882 47.7442 26.8802 47.6477 26.9509 47.5362C27.0216 47.4246 27.0695 47.3002 27.0918 47.17C27.1141 47.0398 27.1104 46.9065 27.0809 46.7778C27.0514 46.6491 26.9968 46.5275 26.92 46.42C26.8466 46.3109 26.7524 46.2173 26.6427 46.1446C26.5331 46.072 26.4102 46.0217 26.281 45.9966C26.1519 45.9715 26.0191 45.9722 25.8902 45.9985C25.7614 46.0248 25.639 46.0763 25.53 46.15ZM71 22.62C71.2118 22.6207 71.4184 22.5542 71.59 22.43L78.09 17.69C78.1964 17.6125 78.2865 17.5148 78.3551 17.4025C78.4237 17.2903 78.4695 17.1656 78.49 17.0356C78.5104 16.9056 78.505 16.7728 78.4741 16.6449C78.4433 16.5169 78.3875 16.3964 78.31 16.29C78.2325 16.1836 78.1349 16.0935 78.0226 16.0249C77.9103 15.9563 77.7856 15.9105 77.6556 15.89C77.5256 15.8696 77.3928 15.875 77.2649 15.9059C77.137 15.9367 77.0164 15.9925 76.91 16.07L70.41 20.82C70.2428 20.9454 70.119 21.1201 70.0562 21.3194C69.9934 21.5188 69.9946 21.7329 70.0597 21.9315C70.1248 22.1302 70.2505 22.3034 70.4192 22.4269C70.5879 22.5504 70.791 22.6179 71 22.62ZM82.1 33.25H74.72C74.4548 33.25 74.2004 33.3553 74.0129 33.5429C73.8254 33.7304 73.72 33.9848 73.72 34.25C73.72 34.5152 73.8254 34.7696 74.0129 34.9571C74.2004 35.1446 74.4548 35.25 74.72 35.25H82.1C82.3652 35.25 82.6196 35.1446 82.8071 34.9571C82.9947 34.7696 83.1 34.5152 83.1 34.25C83.1 33.9848 82.9947 33.7304 82.8071 33.5429C82.6196 33.3553 82.3652 33.25 82.1 33.25ZM70.9 46.15C70.6836 45.9982 70.416 45.9382 70.1555 45.9832C69.895 46.0281 69.663 46.1744 69.51 46.39C69.4333 46.4975 69.3786 46.6191 69.3491 46.7478C69.3196 46.8765 69.3159 47.0098 69.3383 47.14C69.3606 47.2702 69.4084 47.3946 69.4791 47.5062C69.5498 47.6177 69.6419 47.7142 69.75 47.79L76.92 52.79C77.09 52.9087 77.2927 52.9716 77.5 52.97C77.7099 52.9666 77.9135 52.8972 78.0817 52.7716C78.25 52.6461 78.3745 52.4708 78.4376 52.2705C78.5007 52.0702 78.4991 51.8552 78.4331 51.6559C78.3671 51.4566 78.2401 51.2831 78.07 51.16L70.9 46.15ZM56.23 67.91H40.31C40.0448 67.91 39.7904 68.0153 39.6029 68.2029C39.4154 68.3904 39.31 68.6448 39.31 68.91C39.31 69.1752 39.4154 69.4296 39.6029 69.6171C39.7904 69.8046 40.0448 69.91 40.31 69.91H56.23C56.4952 69.91 56.7496 69.8046 56.9371 69.6171C57.1247 69.4296 57.23 69.1752 57.23 68.91C57.23 68.6448 57.1247 68.3904 56.9371 68.2029C56.7496 68.0153 56.4952 67.91 56.23 67.91ZM56.23 71.91H40.31C40.0448 71.91 39.7904 72.0153 39.6029 72.2029C39.4154 72.3904 39.31 72.6448 39.31 72.91C39.31 73.1752 39.4154 73.4296 39.6029 73.6171C39.7904 73.8046 40.0448 73.91 40.31 73.91H56.23C56.4952 73.91 56.7496 73.8046 56.9371 73.6171C57.1247 73.4296 57.23 73.1752 57.23 72.91C57.23 72.6448 57.1247 72.3904 56.9371 72.2029C56.7496 72.0153 56.4952 71.91 56.23 71.91ZM56.23 75.91H40.31C40.0448 75.91 39.7904 76.0153 39.6029 76.2029C39.4154 76.3904 39.31 76.6448 39.31 76.91C39.31 77.1752 39.4154 77.4296 39.6029 77.6171C39.7904 77.8046 40.0448 77.91 40.31 77.91H56.23C56.4952 77.91 56.7496 77.8046 56.9371 77.6171C57.1247 77.4296 57.23 77.1752 57.23 76.91C57.23 76.6448 57.1247 76.3904 56.9371 76.2029C56.7496 76.0153 56.4952 75.91 56.23 75.91ZM53.23 79.91H43.31C43.0448 79.91 42.7904 80.0153 42.6029 80.2029C42.4154 80.3904 42.31 80.6448 42.31 80.91C42.31 81.1752 42.4154 81.4296 42.6029 81.6171C42.7904 81.8046 43.0448 81.91 43.31 81.91H53.23C53.4952 81.91 53.7496 81.8046 53.9371 81.6171C54.1247 81.4296 54.23 81.1752 54.23 80.91C54.23 80.6448 54.1247 80.3904 53.9371 80.2029C53.7496 80.0153 53.4952 79.91 53.23 79.91ZM69.71 34.7C69.5946 31.0326 68.5519 27.4542 66.6794 24.2988C64.8069 21.1434 62.1655 18.5138 59.0017 16.6554C55.838 14.7969 52.255 13.7703 48.5871 13.6712C44.9193 13.5722 41.2861 14.404 38.0266 16.0889C34.7672 17.7739 31.9877 20.2571 29.9476 23.3068C27.9075 26.3566 26.6733 29.8735 26.36 33.5293C26.0468 37.1851 26.6649 40.8607 28.1565 44.213C29.6481 47.5653 31.9647 50.4852 34.89 52.7C36.41 53.85 37.31 57.45 37.29 62.32C37.282 62.719 37.3537 63.1155 37.5009 63.4865C37.6481 63.8574 37.8678 64.1952 38.1472 64.4802C38.4266 64.7652 38.76 64.9915 39.1279 65.146C39.4959 65.3005 39.891 65.3801 40.29 65.38H55.45C55.8525 65.3802 56.251 65.2994 56.6216 65.1425C56.9923 64.9855 57.3276 64.7555 57.6075 64.4663C57.8874 64.177 58.1063 63.8344 58.251 63.4588C58.3958 63.0832 58.4634 62.6823 58.45 62.28C58.36 57.35 59.28 53.81 60.91 52.82C66.58 49.44 69.94 42.48 69.71 34.7ZM59.91 51.16C56.91 52.96 56.41 58.25 56.48 62.37C56.482 62.5086 56.4565 62.6463 56.405 62.775C56.3535 62.9037 56.2771 63.021 56.18 63.12C56.0859 63.2187 55.9726 63.2971 55.8471 63.3505C55.7215 63.4038 55.5864 63.4308 55.45 63.43H40.32C40.1836 63.4308 40.0485 63.4038 39.923 63.3505C39.7974 63.2971 39.6841 63.2187 39.59 63.12C39.4919 63.0239 39.4146 62.9086 39.363 62.7812C39.3113 62.6539 39.2865 62.5173 39.29 62.38C39.29 58.38 38.76 53.18 36.09 51.15C33.6553 49.3177 31.6816 46.9426 30.3258 44.2137C28.97 41.4847 28.2695 38.4771 28.28 35.43C28.3088 30.2912 30.3303 25.364 33.9189 21.6858C37.5076 18.0076 42.3835 15.8653 47.52 15.71H48C53.106 15.7092 58.0132 17.6888 61.6893 21.2325C65.3653 24.7761 67.5236 29.6074 67.71 34.71C67.92 41.83 64.93 48.11 59.91 51.16Z" stroke="#00008F" stroke-width="2" mask="url(#path-2-inside-1)"/>
<path d="M42.1479 20.0476L42.1479 20.0476L42.1519 20.0463C42.2149 20.0262 42.2813 20.0188 42.3472 20.0245C42.4131 20.0303 42.4772 20.049 42.5358 20.0797C42.5944 20.1104 42.6463 20.1525 42.6886 20.2034C42.7308 20.2543 42.7625 20.313 42.7819 20.3763L42.7819 20.3763L42.7836 20.3818C42.8037 20.4448 42.8111 20.5112 42.8054 20.5771C42.7996 20.643 42.7809 20.7071 42.7502 20.7657C42.7195 20.8243 42.6775 20.8763 42.6266 20.9185C42.5757 20.9607 42.5169 20.9925 42.4536 21.0118L42.4518 21.0124C37.4415 22.5668 34.927 25.9674 33.6761 29.019C32.4311 32.0563 32.43 34.7598 32.43 34.9999C32.43 35.1325 32.3773 35.2597 32.2835 35.3535C32.1898 35.4472 32.0626 35.4999 31.93 35.4999C31.7974 35.4999 31.6702 35.4472 31.5764 35.3535C31.4827 35.2597 31.43 35.1325 31.43 34.9999L31.43 34.9997C31.43 34.9583 31.4291 32.0383 32.7735 28.7175C34.1158 25.4016 36.788 21.7068 42.1479 20.0476ZM45.6796 19.2764L45.717 19.2719L45.7533 19.2618C46.9057 18.943 48.1108 18.8713 49.29 19.0496V19.1L49.6921 19.1802C49.759 19.1936 49.8225 19.2205 49.8786 19.2593C49.9347 19.2982 49.9823 19.3481 50.0184 19.406C50.0545 19.4638 50.0784 19.5285 50.0886 19.596C50.0988 19.6635 50.095 19.7323 50.0776 19.7983C50.0602 19.8643 50.0294 19.926 49.9872 19.9796C49.945 20.0333 49.8923 20.0777 49.8323 20.1102C49.7723 20.1427 49.7063 20.1626 49.6383 20.1686C49.5704 20.1746 49.5019 20.1667 49.4371 20.1452L49.4026 20.1338L49.3668 20.1275C48.2493 19.9304 47.1021 19.9847 46.0086 20.2863C45.979 20.288 45.9494 20.2871 45.92 20.2835L45.8602 20.2763L45.8004 20.2835C45.6669 20.2995 45.5324 20.2618 45.4266 20.1787C45.3209 20.0956 45.2525 19.9739 45.2364 19.8404C45.2204 19.7068 45.2581 19.5723 45.3412 19.4666C45.4243 19.3608 45.546 19.2924 45.6796 19.2764Z" stroke="#00008F"/>
</svg>

<svg width="96" height="96" viewBox="0 0 96 96" fill="none" xmlns="http://www.w3.org/2000/svg"><mask id="a" fill="#fff"><path d="M24.84 22.43a1 1 0 00.59.19 1 1 0 00.59-1.8l-6.5-4.75a1.002 1.002 0 10-1.18 1.62l6.5 4.74zm-2.13 11.82a1 1 0 00-1-1h-7.38a1 1 0 100 2h7.38a1 1 0 001-1zm2.82 11.9l-7.18 5.05a1 1 0 00.58 1.8.92.92 0 00.57-.18l7.18-5a1 1 0 00.24-1.4 1 1 0 00-1.39-.27zM71 22.62a1 1 0 00.59-.19l6.5-4.74a1.002 1.002 0 10-1.18-1.62l-6.5 4.75a1 1 0 00.59 1.8zm11.1 10.63h-7.38a1 1 0 100 2h7.38a1 1 0 000-2zm-11.2 12.9a1 1 0 00-1.562.99 1 1 0 00.412.65l7.17 5a1 1 0 00.58.18 1 1 0 00.57-1.81l-7.17-5.01zM56.23 67.91H40.31a1 1 0 100 2h15.92a1 1 0 000-2zm0 4H40.31a1 1 0 100 2h15.92a1 1 0 000-2zm0 4H40.31a1 1 0 100 2h15.92a1 1 0 000-2zm-3 4h-9.92a1 1 0 100 2h9.92a1 1 0 000-2zM69.71 34.7a21.72 21.72 0 10-34.82 18c1.52 1.15 2.42 4.75 2.4 9.62a3 3 0 003 3.06h15.16a3.002 3.002 0 003-3.1c-.09-4.93.83-8.47 2.46-9.46 5.67-3.38 9.03-10.34 8.8-18.12zm-9.8 16.46c-3 1.8-3.5 7.09-3.43 11.21a1.05 1.05 0 01-.633.98c-.126.054-.26.08-.397.08H40.32a1 1 0 01-.73-.31 1 1 0 01-.3-.74c0-4-.53-9.2-3.2-11.23a19.59 19.59 0 01-7.81-15.72 19.84 19.84 0 0119.24-19.72H48a19.72 19.72 0 0119.71 19c.21 7.12-2.78 13.4-7.8 16.45z"/></mask><path d="M24.84 22.43a1 1 0 00.59.19 1 1 0 00.59-1.8l-6.5-4.75a1.002 1.002 0 10-1.18 1.62l6.5 4.74zm-2.13 11.82a1 1 0 00-1-1h-7.38a1 1 0 100 2h7.38a1 1 0 001-1zm2.82 11.9l-7.18 5.05a1 1 0 00.58 1.8.92.92 0 00.57-.18l7.18-5a1 1 0 00.24-1.4 1 1 0 00-1.39-.27zM71 22.62a1 1 0 00.59-.19l6.5-4.74a1.002 1.002 0 10-1.18-1.62l-6.5 4.75a1 1 0 00.59 1.8zm11.1 10.63h-7.38a1 1 0 100 2h7.38a1 1 0 000-2zm-11.2 12.9a1 1 0 00-1.562.99 1 1 0 00.412.65l7.17 5a1 1 0 00.58.18 1 1 0 00.57-1.81l-7.17-5.01zM56.23 67.91H40.31a1 1 0 100 2h15.92a1 1 0 000-2zm0 4H40.31a1 1 0 100 2h15.92a1 1 0 000-2zm0 4H40.31a1 1 0 100 2h15.92a1 1 0 000-2zm-3 4h-9.92a1 1 0 100 2h9.92a1 1 0 000-2zM69.71 34.7a21.72 21.72 0 10-34.82 18c1.52 1.15 2.42 4.75 2.4 9.62a3 3 0 003 3.06h15.16a3.002 3.002 0 003-3.1c-.09-4.93.83-8.47 2.46-9.46 5.67-3.38 9.03-10.34 8.8-18.12zm-9.8 16.46c-3 1.8-3.5 7.09-3.43 11.21a1.05 1.05 0 01-.633.98c-.126.054-.26.08-.397.08H40.32a1 1 0 01-.73-.31 1 1 0 01-.3-.74c0-4-.53-9.2-3.2-11.23a19.59 19.59 0 01-7.81-15.72 19.84 19.84 0 0119.24-19.72H48a19.72 19.72 0 0119.71 19c.21 7.12-2.78 13.4-7.8 16.45z" stroke="#00008F" stroke-width="2" mask="url(#a)"/><path d="M42.148 20.048h0l.004-.002a.5.5 0 01.63.33h0l.002.006a.5.5 0 01-.33.63h-.002c-5.01 1.555-7.525 4.955-8.776 8.007-1.245 3.037-1.246 5.74-1.246 5.98a.5.5 0 01-1 0h0c0-.04 0-2.96 1.343-6.282 1.343-3.315 4.015-7.01 9.375-8.67zm3.532-.772l.037-.004.036-.01a8.499 8.499 0 013.537-.212v.05l.402.08a.5.5 0 11-.255.965l-.034-.011-.036-.006a7.64 7.64 0 00-3.358.158c-.03.002-.06.001-.089-.003l-.06-.007-.06.008a.508.508 0 01-.12-1.008z" stroke="#00008F"/></svg>
